assets/1. 1-F/Blueberries/Color/Blueberries-color.svg

<svg width="100%" height="100%" viewBox="0 0 32 32" fill="none" xmlns="http://www.w3.org/2000/svg">
<path d="M26.3939 2.06272C25.8448 2.07385 25.5757 2.51118 25.5421 2.73532L27.7612 4.40527L29.2967 6.50117C29.5825 6.39472 29.8627 6.12565 29.9132 5.85671C29.9916 5.33556 29.8515 5.10573 29.6554 4.90963C29.4593 4.71353 29.2967 4.66301 28.7756 4.65745C29.2127 4.40527 29.4929 3.9457 29.3752 3.39095C29.3752 3.39095 29.2519 2.8305 28.6859 2.66803C28.1984 2.51668 27.666 2.66803 27.3465 3.25645C27.369 2.98741 27.2961 2.62886 27.2401 2.55034C27.184 2.47183 26.9431 2.05159 26.3939 2.06272Z" fill="#7A63B4"/>
<path d="M26.3939 2.06272C25.8448 2.07385 25.5757 2.51118 25.5421 2.73532L27.7612 4.40527L29.2967 6.50117C29.5825 6.39472 29.8627 6.12565 29.9132 5.85671C29.9916 5.33556 29.8515 5.10573 29.6554 4.90963C29.4593 4.71353 29.2967 4.66301 28.7756 4.65745C29.2127 4.40527 29.4929 3.9457 29.3752 3.39095C29.3752 3.39095 29.2519 2.8305 28.6859 2.66803C28.1984 2.51668 27.666 2.66803 27.3465 3.25645C27.369 2.98741 27.2961 2.62886 27.2401 2.55034C27.184 2.47183 26.9431 2.05159 26.3939 2.06272Z" fill="url(#paint0_radial_18_32653)"/>
<path d="M26.3939 2.06272C25.8448 2.07385 25.5757 2.51118 25.5421 2.73532L27.7612 4.40527L29.2967 6.50117C29.5825 6.39472 29.8627 6.12565 29.9132 5.85671C29.9916 5.33556 29.8515 5.10573 29.6554 4.90963C29.4593 4.71353 29.2967 4.66301 28.7756 4.65745C29.2127 4.40527 29.4929 3.9457 29.3752 3.39095C29.3752 3.39095 29.2519 2.8305 28.6859 2.66803C28.1984 2.51668 27.666 2.66803 27.3465 3.25645C27.369 2.98741 27.2961 2.62886 27.2401 2.55034C27.184 2.47183 26.9431 2.05159 26.3939 2.06272Z" fill="url(#paint1_radial_18_32653)"/>
<path d="M26.3939 2.06272C25.8448 2.07385 25.5757 2.51118 25.5421 2.73532L27.7612 4.40527L29.2967 6.50117C29.5825 6.39472 29.8627 6.12565 29.9132 5.85671C29.9916 5.33556 29.8515 5.10573 29.6554 4.90963C29.4593 4.71353 29.2967 4.66301 28.7756 4.65745C29.2127 4.40527 29.4929 3.9457 29.3752 3.39095C29.3752 3.39095 29.2519 2.8305 28.6859 2.66803C28.1984 2.51668 27.666 2.66803 27.3465 3.25645C27.369 2.98741 27.2961 2.62886 27.2401 2.55034C27.184 2.47183 26.9431 2.05159 26.3939 2.06272Z" fill="url(#paint2_radial_18_32653)"/>
<path d="M22.6549 16.68C26.7087 16.68 29.9949 13.3938 29.9949 9.34C29.9949 5.28623 26.7087 2 22.6549 2C18.6012 2 15.3149 5.28623 15.3149 9.34C15.3149 13.3938 18.6012 16.68 22.6549 16.68Z" fill="url(#paint3_radial_18_32653)"/>
<path d="M22.6549 16.68C26.7087 16.68 29.9949 13.3938 29.9949 9.34C29.9949 5.28623 26.7087 2 22.6549 2C18.6012 2 15.3149 5.28623 15.3149 9.34C15.3149 13.3938 18.6012 16.68 22.6549 16.68Z" fill="url(#paint4_radial_18_32653)"/>
<path d="M9.985 19.14C14.3922 19.14 17.965 15.5672 17.965 11.16C17.965 6.75276 14.3922 3.17999 9.985 3.17999C5.57777 3.17999 2.005 6.75276 2.005 11.16C2.005 15.5672 5.57777 19.14 9.985 19.14Z" fill="url(#paint5_radial_18_32653)"/>
<path d="M9.985 19.14C14.3922 19.14 17.965 15.5672 17.965 11.16C17.965 6.75276 14.3922 3.17999 9.985 3.17999C5.57777 3.17999 2.005 6.75276 2.005 11.16C2.005 15.5672 5.57777 19.14 9.985 19.14Z" fill="url(#paint6_radial_18_32653)"/>
<path d="M10.2965 7.05148C10.0699 6.64599 10.1649 5.60986 9.1032 5.12527C8.04149 4.64068 7.50353 5.26083 7.0425 5.38335C6.58147 5.50586 5.53249 5.1054 4.82112 5.95661C4.10975 6.80782 4.48543 7.4786 4.42676 8.07605C4.36808 8.67349 3.85314 9.16114 4.24116 10.111C4.62917 11.0608 5.76789 11.0478 6.22688 11.2629C6.68587 11.4781 7.42075 12.3822 8.28866 12.0859C9.15657 11.7895 9.50838 10.9 9.81718 10.6022C10.126 10.3044 11.3815 9.90315 11.2553 8.67235C11.1291 7.44156 10.5231 7.45698 10.2965 7.05148Z" fill="#A97DE4"/>
<path d="M7.28498 10.89C8.62703 10.89 9.71498 9.80205 9.71498 8.46C9.71498 7.11795 8.62703 6.03 7.28498 6.03C5.94293 6.03 4.85498 7.11795 4.85498 8.46C4.85498 9.80205 5.94293 10.89 7.28498 10.89Z" fill="url(#paint7_radial_18_32653)"/>
<path d="M18.695 30C23.649 30 27.665 25.984 27.665 21.03C27.665 16.076 23.649 12.06 18.695 12.06C13.741 12.06 9.72498 16.076 9.72498 21.03C9.72498 25.984 13.741 30 18.695 30Z" fill="url(#paint8_radial_18_32653)"/>
<path d="M18.695 30C23.649 30 27.665 25.984 27.665 21.03C27.665 16.076 23.649 12.06 18.695 12.06C13.741 12.06 9.72498 16.076 9.72498 21.03C9.72498 25.984 13.741 30 18.695 30Z" fill="url(#paint9_radial_18_32653)"/>
<path d="M18.695 30C23.649 30 27.665 25.984 27.665 21.03C27.665 16.076 23.649 12.06 18.695 12.06C13.741 12.06 9.72498 16.076 9.72498 21.03C9.72498 25.984 13.741 30 18.695 30Z" fill="url(#paint10_radial_18_32653)"/>
<path d="M23.7408 14.8383C23.1785 14.4343 22.6512 12.9756 20.9116 12.9931C19.1719 13.0106 18.838 14.188 18.2932 14.645C17.7484 15.102 16.0791 15.225 15.6574 16.824C15.2356 18.423 16.167 19.0908 16.4657 19.9343C16.7645 20.7779 16.3779 21.7619 17.5025 22.7985C18.6271 23.8352 20.1559 23.0973 20.9116 23.0974C21.6672 23.0975 23.2311 23.853 24.2152 22.904C25.1993 21.9549 25.1115 20.5317 25.3399 19.9343C25.5683 19.337 27.0092 18.0012 26.0603 16.4197C25.1114 14.8382 24.3031 15.2423 23.7408 14.8383Z" fill="url(#paint11_radial_18_32653)"/>
<path d="M20.965 22.06C22.9587 22.06 24.575 20.4437 24.575 18.45C24.575 16.4562 22.9587 14.84 20.965 14.84C18.9712 14.84 17.355 16.4562 17.355 18.45C17.355 20.4437 18.9712 22.06 20.965 22.06Z" fill="url(#paint12_radial_18_32653)"/>
<g filter="url(#filter0_f_18_32653)">
<path d="M21.4766 13.2266C22.1016 13.3535 23.1207 14.4472 23.2578 14.7109C23.3949 14.9746 23.6718 15.2053 23.8468 15.2053C24.0656 15.2053 25.2891 15.3516 25.8828 16.4844C26.076 16.853 26.275 17.8266 25.9688 18.5391" stroke="url(#paint13_linear_18_32653)" stroke-width="0.2" stroke-linecap="round"/>
</g>
<g filter="url(#filter1_f_18_32653)">
<path d="M9.30176 5.22998C9.65288 5.51263 9.93193 6.54986 9.93089 6.76514C9.92986 6.98042 10.0277 7.219 10.1378 7.27505C10.2753 7.34512 10.9965 7.83207 10.9951 8.7584C10.9946 9.05986 10.7976 9.75624 10.3692 10.1212" stroke="url(#paint14_linear_18_32653)" stroke-width="0.2" stroke-linecap="round"/>
</g>
<defs>
<filter id="filter0_f_18_32653" x="21.1766" y="12.9266" width="5.25046" height="5.91254" filterUnits="userSpaceOnUse" color-interpolation-filters="sRGB">
<feFlood flood-opacity="0" result="BackgroundImageFix"/>
<feBlend mode="normal" in="SourceGraphic" in2="BackgroundImageFix" result="shape"/>
<feGaussianBlur stdDeviation="0.1" result="effect1_foregroundBlur_18_32653"/>
</filter>
<filter id="filter1_f_18_32653" x="9.00178" y="4.92997" width="2.29331" height="5.49119" filterUnits="userSpaceOnUse" color-interpolation-filters="sRGB">
<feFlood flood-opacity="0" result="BackgroundImageFix"/>
<feBlend mode="normal" in="SourceGraphic" in2="BackgroundImageFix" result="shape"/>
<feGaussianBlur stdDeviation="0.1" result="effect1_foregroundBlur_18_32653"/>
</filter>
<radialGradient id="paint0_radial_18_32653" cx="0" cy="0" r="1" gradientUnits="userSpaceOnUse" gradientTransform="translate(28.9687 3.28125) rotate(139.927) scale(2.57277 2.54644)">
<stop stop-color="#8F7EBF"/>
<stop offset="0.675716" stop-color="#755CAF"/>
<stop offset="1" stop-color="#8672B9" stop-opacity="0"/>
</radialGradient>
<radialGradient id="paint1_radial_18_32653" cx="0" cy="0" r="1" gradientUnits="userSpaceOnUse" gradientTransform="translate(26.8437 2.6875) rotate(100.008) scale(1.07892 1.06787)">
<stop stop-color="#8978B8"/>
<stop offset="1" stop-color="#8A79B9" stop-opacity="0"/>
</radialGradient>
<radialGradient id="paint2_radial_18_32653" cx="0" cy="0" r="1" gradientUnits="userSpaceOnUse" gradientTransform="translate(29.5937 5.28125) rotate(173.83) scale(1.16299 1.15108)">
<stop stop-color="#9280C3"/>
<stop offset="1" stop-color="#9483C4" stop-opacity="0"/>
</radialGradient>
<radialGradient id="paint3_radial_18_32653" cx="0" cy="0" r="1" gradientUnits="userSpaceOnUse" gradientTransform="translate(31.8466 0.638101) scale(19.0985 19.0985)">
<stop stop-color="#8C65C9"/>
<stop offset="1" stop-color="#625996"/>
</radialGradient>
<radialGradient id="paint4_radial_18_32653" cx="0" cy="0" r="1" gradientUnits="userSpaceOnUse" gradientTransform="translate(26.25 6.25) rotate(141.234) scale(10.5808)">
<stop offset="0.0953306" stop-color="#A38DD9"/>
<stop offset="0.587996" stop-color="#7E65B8"/>
<stop offset="1" stop-color="#4D348E"/>
</radialGradient>
<radialGradient id="paint5_radial_18_32653" cx="0" cy="0" r="1" gradientUnits="userSpaceOnUse" gradientTransform="translate(15.5 8.25) rotate(135.428) scale(11.8444)">
<stop stop-color="#A38DD9"/>
<stop offset="1" stop-color="#714BB3"/>
</radialGradient>
<radialGradient id="paint6_radial_18_32653" cx="0" cy="0" r="1" gradientUnits="userSpaceOnUse" gradientTransform="translate(15 18.125) rotate(72.4495) scale(9.83269)">
<stop offset="0.117286" stop-color="#532EA8"/>
<stop offset="0.501382" stop-color="#573A9C" stop-opacity="0.581262"/>
<stop offset="0.63085" stop-color="#583B9C" stop-opacity="0.251954"/>
<stop offset="0.963377" stop-color="#583B9C" stop-opacity="0"/>
</radialGradient>
<radialGradient id="paint7_radial_18_32653" cx="0" cy="0" r="1" gradientUnits="userSpaceOnUse" gradientTransform="translate(5.49952 9.83992) rotate(-42.0643) scale(4.64685)">
<stop offset="0.00558659" stop-color="#716380"/>
<stop offset="0.625294" stop-color="#4B2E68"/>
<stop offset="1" stop-color="#351A50"/>
</radialGradient>
<radialGradient id="paint8_radial_18_32653" cx="0" cy="0" r="1" gradientUnits="userSpaceOnUse" gradientTransform="translate(29.5221 12.4443) scale(25.3866 25.3866)">
<stop stop-color="#8C65C9"/>
<stop offset="1" stop-color="#625996"/>
</radialGradient>
<radialGradient id="paint9_radial_18_32653" cx="0" cy="0" r="1" gradientUnits="userSpaceOnUse" gradientTransform="translate(23.75 17.375) rotate(133.559) scale(14.0582)">
<stop stop-color="#9E87D8"/>
<stop offset="0.46717" stop-color="#8D65DA"/>
<stop offset="0.696664" stop-color="#7F58CA"/>
<stop offset="1" stop-color="#7B48CA"/>
</radialGradient>
<radialGradient id="paint10_radial_18_32653" cx="0" cy="0" r="1" gradientUnits="userSpaceOnUse" gradientTransform="translate(22.8125 25.4375) rotate(-140.981) scale(23.3289 23.3289)">
<stop offset="0.265442" stop-opacity="0"/>
<stop offset="0.402471" stop-color="#715BA7" stop-opacity="0"/>
<stop offset="0.614585" stop-color="#7862AD"/>
</radialGradient>
<radialGradient id="paint11_radial_18_32653" cx="0" cy="0" r="1" gradientUnits="userSpaceOnUse" gradientTransform="translate(20.965 18.8125) rotate(-1.13307) scale(3.16063 3.29486)">
<stop stop-color="#B382F3"/>
<stop offset="1" stop-color="#AF7FF0"/>
</radialGradient>
<radialGradient id="paint12_radial_18_32653" cx="0" cy="0" r="1" gradientUnits="userSpaceOnUse" gradientTransform="translate(18.3125 20.5) rotate(-42.0643) scale(6.90335)">
<stop offset="0.00558659" stop-color="#716380"/>
<stop offset="0.625294" stop-color="#4B2E68"/>
<stop offset="1" stop-color="#351A50"/>
</radialGradient>
<linearGradient id="paint13_linear_18_32653" x1="21.7812" y1="13.4531" x2="26.2812" y2="18.0313" gradientUnits="userSpaceOnUse">
<stop stop-color="#B993F4" stop-opacity="0"/>
<stop offset="0.168586" stop-color="#C7A7F9"/>
<stop offset="0.412754" stop-color="#AE97F6" stop-opacity="0"/>
<stop offset="0.718114" stop-color="#CDAEFF"/>
<stop offset="1" stop-color="#C19CFA" stop-opacity="0"/>
</linearGradient>
<linearGradient id="paint14_linear_18_32653" x1="9.41842" y1="5.4748" x2="10.8764" y2="9.84366" gradientUnits="userSpaceOnUse">
<stop stop-color="#B993F4" stop-opacity="0"/>
<stop offset="0.168586" stop-color="#C7A7F9"/>
<stop offset="0.412754" stop-color="#AE97F6" stop-opacity="0"/>
<stop offset="0.718114" stop-color="#CDAEFF"/>
<stop offset="1" stop-color="#C19CFA" stop-opacity="0"/>
</linearGradient>
</defs>
</svg>

<svg width="100%" height="100%" viewBox="0 0 32 32" xmlns="http://www.w3.org/2000/svg"><path fill="#7A63B4" d="M26.394 2.063c-.55.01-.818.448-.852.672l2.22 1.67 1.535 2.096c.285-.106.566-.375.616-.644.079-.521-.061-.751-.258-.947-.196-.196-.358-.247-.88-.253.438-.252.718-.711.6-1.266 0 0-.123-.56-.69-.723-.487-.151-1.019 0-1.338.588.022-.269-.05-.627-.107-.706s-.297-.498-.846-.487"/><path fill="url(#a)" d="M26.394 2.063c-.55.01-.818.448-.852.672l2.22 1.67 1.535 2.096c.285-.106.566-.375.616-.644.079-.521-.061-.751-.258-.947-.196-.196-.358-.247-.88-.253.438-.252.718-.711.6-1.266 0 0-.123-.56-.69-.723-.487-.151-1.019 0-1.338.588.022-.269-.05-.627-.107-.706s-.297-.498-.846-.487"/><path fill="url(#b)" d="M26.394 2.063c-.55.01-.818.448-.852.672l2.22 1.67 1.535 2.096c.285-.106.566-.375.616-.644.079-.521-.061-.751-.258-.947-.196-.196-.358-.247-.88-.253.438-.252.718-.711.6-1.266 0 0-.123-.56-.69-.723-.487-.151-1.019 0-1.338.588.022-.269-.05-.627-.107-.706s-.297-.498-.846-.487"/><path fill="url(#c)" d="M26.394 2.063c-.55.01-.818.448-.852.672l2.22 1.67 1.535 2.096c.285-.106.566-.375.616-.644.079-.521-.061-.751-.258-.947-.196-.196-.358-.247-.88-.253.438-.252.718-.711.6-1.266 0 0-.123-.56-.69-.723-.487-.151-1.019 0-1.338.588.022-.269-.05-.627-.107-.706s-.297-.498-.846-.487"/><path fill="url(#d)" d="M22.655 16.68a7.34 7.34 0 1 0 0-14.68 7.34 7.34 0 0 0 0 14.68"/><path fill="url(#e)" d="M22.655 16.68a7.34 7.34 0 1 0 0-14.68 7.34 7.34 0 0 0 0 14.68"/><path fill="url(#f)" d="M9.985 19.14a7.98 7.98 0 1 0 0-15.96 7.98 7.98 0 0 0 0 15.96"/><path fill="url(#g)" d="M9.985 19.14a7.98 7.98 0 1 0 0-15.96 7.98 7.98 0 0 0 0 15.96"/><path fill="#A97DE4" d="M10.297 7.051c-.227-.405-.132-1.441-1.194-1.926s-1.6.136-2.06.258c-.462.123-1.51-.278-2.222.574-.711.85-.336 1.522-.394 2.12-.059.596-.574 1.084-.186 2.034s1.527.937 1.986 1.152 1.194 1.12 2.062.823c.868-.296 1.22-1.186 1.528-1.484s1.565-.699 1.438-1.93c-.126-1.23-.732-1.215-.959-1.62"/><path fill="url(#h)" d="M7.285 10.89a2.43 2.43 0 1 0 0-4.86 2.43 2.43 0 0 0 0 4.86"/><path fill="url(#i)" d="M18.695 30a8.97 8.97 0 1 0 0-17.94 8.97 8.97 0 0 0 0 17.94"/><path fill="url(#j)" d="M18.695 30a8.97 8.97 0 1 0 0-17.94 8.97 8.97 0 0 0 0 17.94"/><path fill="url(#k)" d="M18.695 30a8.97 8.97 0 1 0 0-17.94 8.97 8.97 0 0 0 0 17.94"/><path fill="url(#l)" d="M23.74 14.838c-.561-.404-1.089-1.862-2.828-1.845-1.74.018-2.074 1.195-2.619 1.652s-2.214.58-2.636 2.179c-.421 1.599.51 2.267.809 3.11.299.844-.088 1.828 1.037 2.864 1.124 1.037 2.653.3 3.409.3s2.32.755 3.303-.194.896-2.372 1.125-2.97c.228-.597 1.67-1.933.72-3.514-.949-1.582-1.757-1.178-2.32-1.582"/><path fill="url(#m)" d="M20.965 22.06a3.61 3.61 0 1 0 0-7.22 3.61 3.61 0 0 0 0 7.22"/><g filter="url(#n)"><path stroke="url(#o)" stroke-linecap="round" stroke-width=".2" d="M21.477 13.227c.625.127 1.644 1.22 1.78 1.484.138.264.415.494.59.494.219 0 1.442.147 2.036 1.28.193.368.392 1.342.086 2.054"/></g><g filter="url(#p)"><path stroke="url(#q)" stroke-linecap="round" stroke-width=".2" d="M9.302 5.23c.35.283.63 1.32.629 1.535s.097.454.207.51c.137.07.858.557.857 1.483 0 .302-.197.998-.626 1.363"/></g><defs><radialGradient id="a" cx="0" cy="0" r="1" gradientTransform="matrix(-1.96875 1.65625 -1.6393 -1.9486 28.969 3.281)" gradientUnits="userSpaceOnUse"><stop stop-color="#8F7EBF"/><stop offset=".676" stop-color="#755CAF"/><stop offset="1" stop-color="#8672B9" stop-opacity="0"/></radialGradient><radialGradient id="b" cx="0" cy="0" r="1" gradientTransform="rotate(100.008 12.294 12.604)scale(1.07892 1.06787)" gradientUnits="userSpaceOnUse"><stop stop-color="#8978B8"/><stop offset="1" stop-color="#8A79B9" stop-opacity="0"/></radialGradient><radialGradient id="c" cx="0" cy="0" r="1" gradientTransform="rotate(173.83 14.655 3.438)scale(1.16299 1.15108)" gradientUnits="userSpaceOnUse"><stop stop-color="#9280C3"/><stop offset="1" stop-color="#9483C4" stop-opacity="0"/></radialGradient><radialGradient id="d" cx="0" cy="0" r="1" gradientTransform="translate(31.847 .638)scale(19.0985)" gradientUnits="userSpaceOnUse"><stop stop-color="#8C65C9"/><stop offset="1" stop-color="#625996"/></radialGradient><radialGradient id="e" cx="0" cy="0" r="1" gradientTransform="rotate(141.234 12.026 7.743)scale(10.5808)" gradientUnits="userSpaceOnUse"><stop offset=".095" stop-color="#A38DD9"/><stop offset=".588" stop-color="#7E65B8"/><stop offset="1" stop-color="#4D348E"/></radialGradient><radialGradient id="f" cx="0" cy="0" r="1" gradientTransform="rotate(135.428 6.06 7.301)scale(11.8444)" gradientUnits="userSpaceOnUse"><stop stop-color="#A38DD9"/><stop offset="1" stop-color="#714BB3"/></radialGradient><radialGradient id="g" cx="0" cy="0" r="1" gradientTransform="rotate(72.449 -4.871 19.3)scale(9.83269)" gradientUnits="userSpaceOnUse"><stop offset=".117" stop-color="#532EA8"/><stop offset=".501" stop-color="#573A9C" stop-opacity=".581"/><stop offset=".631" stop-color="#583B9C" stop-opacity=".252"/><stop offset=".963" stop-color="#583B9C" stop-opacity="0"/></radialGradient><radialGradient id="h" cx="0" cy="0" r="1" gradientTransform="rotate(-42.064 15.545 -2.231)scale(4.64685)" gradientUnits="userSpaceOnUse"><stop offset=".006" stop-color="#716380"/><stop offset=".625" stop-color="#4B2E68"/><stop offset="1" stop-color="#351A50"/></radialGradient><radialGradient id="i" cx="0" cy="0" r="1" gradientTransform="translate(29.522 12.444)scale(25.3866)" gradientUnits="userSpaceOnUse"><stop stop-color="#8C65C9"/><stop offset="1" stop-color="#625996"/></radialGradient><radialGradient id="j" cx="0" cy="0" r="1" gradientTransform="rotate(133.559 8.148 13.782)scale(14.0582)" gradientUnits="userSpaceOnUse"><stop stop-color="#9E87D8"/><stop offset=".467" stop-color="#8D65DA"/><stop offset=".697" stop-color="#7F58CA"/><stop offset="1" stop-color="#7B48CA"/></radialGradient><radialGradient id="k" cx="0" cy="0" r="1" gradientTransform="rotate(-140.981 15.913 8.677)scale(23.3289)" gradientUnits="userSpaceOnUse"><stop offset=".265" stop-opacity="0"/><stop offset=".402" stop-color="#715BA7" stop-opacity="0"/><stop offset=".615" stop-color="#7862AD"/></radialGradient><radialGradient id="l" cx="0" cy="0" r="1" gradientTransform="matrix(3.16001 -.0625 .06515 3.29422 20.965 18.813)" gradientUnits="userSpaceOnUse"><stop stop-color="#B382F3"/><stop offset="1" stop-color="#AF7FF0"/></radialGradient><radialGradient id="m" cx="0" cy="0" r="1" gradientTransform="rotate(-42.064 35.814 -13.563)scale(6.90335)" gradientUnits="userSpaceOnUse"><stop offset=".006" stop-color="#716380"/><stop offset=".625" stop-color="#4B2E68"/><stop offset="1" stop-color="#351A50"/></radialGradient><linearGradient id="o" x1="21.781" x2="26.281" y1="13.453" y2="18.031" gradientUnits="userSpaceOnUse"><stop stop-color="#B993F4" stop-opacity="0"/><stop offset=".169" stop-color="#C7A7F9"/><stop offset=".413" stop-color="#AE97F6" stop-opacity="0"/><stop offset=".718" stop-color="#CDAEFF"/><stop offset="1" stop-color="#C19CFA" stop-opacity="0"/></linearGradient><linearGradient id="q" x1="9.418" x2="10.876" y1="5.475" y2="9.844" gradientUnits="userSpaceOnUse"><stop stop-color="#B993F4" stop-opacity="0"/><stop offset=".169" stop-color="#C7A7F9"/><stop offset=".413" stop-color="#AE97F6" stop-opacity="0"/><stop offset=".718" stop-color="#CDAEFF"/><stop offset="1" stop-color="#C19CFA" stop-opacity="0"/></linearGradient><filter id="n" width="5.25" height="5.913" x="21.177" y="12.927" color-interpolation-filters="sRGB" filterUnits="userSpaceOnUse"><feFlood flood-opacity="0" result="BackgroundImageFix"/><feBlend in="SourceGraphic" in2="BackgroundImageFix" result="shape"/><feGaussianBlur result="effect1_foregroundBlur_18_32653" stdDeviation=".1"/></filter><filter id="p" width="2.293" height="5.491" x="9.002" y="4.93" color-interpolation-filters="sRGB" filterUnits="userSpaceOnUse"><feFlood flood-opacity="0" result="BackgroundImageFix"/><feBlend in="SourceGraphic" in2="BackgroundImageFix" result="shape"/><feGaussianBlur result="effect1_foregroundBlur_18_32653" stdDeviation=".1"/></filter></defs></svg>
